X: 4089
T: GINNIE PIN YOUR BONNET ON.
R: Reel.
%R: reel
B: James Kerr "Merry Melodies" v.4 p.12 #89
Z: 2016 John Chambers <jc:trillian.mit.edu>
M: C|
L: 1/8
K: Em
|:\
E2ED F2FD | E2(EF) DFAF |\
E2ED F2FD | DFAF E2e2 ::\
dBBA dBA^c | dBBA d2(e^c) |\
[1 dBBA dBA^c | dBAF E2e2 :|\
[2 faef defd | BdAF E2e2 |]

%%sep 1 1 500
%%sep 1 1 500

